logos/codesee-icon.svg

<?xml version="1.0" encoding="UTF-8"?>
<svg width="256px" height="147px" viewBox="0 0 256 147" version="1.1" xmlns="http://www.w3.org/2000/svg" preserveAspectRatio="xMidYMid">
    <title>CodeSee</title>
    <g>
        <path d="M98.1538099,0 L109.846064,29.8460645 C91.9999058,36.9230479 68.6152711,53.2306992 45.8460645,73.538319 C68.6152711,93.8454363 91.9999058,109.846064 109.846064,117.537974 L98.4614612,146.769238 C69.8461273,134.461932 34.769238,107.38385 2.84217094e-14,73.2306678 L2.0861049,71.1903573 C36.1575411,38.0118754 70.1106596,12.061529 98.1538099,0 Z M157.845562,0 C186.461273,12.3076826 221.230008,39.0768578 256,73.2306678 L253.913487,75.271307 C219.829532,108.461065 185.581182,134.708078 157.537785,146.769238 L146.15381,117.537974 C163.999843,109.846064 187.384603,93.8454363 210.15381,73.538319 L208.306431,71.900624 C186.124608,52.3559471 163.517518,36.7317781 146.15381,29.8460645 L157.845562,0 Z M128,49.8459074 C141.424096,49.8459074 152.308091,60.7288973 152.308091,74.1536215 C152.308091,87.5783457 141.424096,98.460833 128,98.460833 C114.57515,98.460833 103.69216,87.5783457 103.69216,74.1536215 C103.69216,60.7288973 114.57515,49.8459074 128,49.8459074 Z" fill="#000000"></path>
    </g>
</svg>

<svg preserveAspectRatio="xMidYMid" viewBox="0 0 256 147" xmlns="http://www.w3.org/2000/svg">
  <path d="m98.154 0 11.692 29.846c-17.846 7.077-41.23 23.385-64 43.692 22.77 20.307 46.154 36.308 64 44l-11.385 29.231C69.846 134.462 34.77 107.384 0 73.231l2.086-2.04C36.158 38.01 70.111 12.06 98.154 0Zm59.692 0C186.46 12.308 221.23 39.077 256 73.23l-2.087 2.041c-34.083 33.19-68.332 59.437-96.375 71.498l-11.384-29.231c17.846-7.692 41.23-23.693 64-44l-1.848-1.637c-22.181-19.545-44.788-35.17-62.152-42.055L157.846 0ZM128 49.846c13.424 0 24.308 10.883 24.308 24.308 0 13.424-10.884 24.307-24.308 24.307-13.425 0-24.308-10.883-24.308-24.307 0-13.425 10.883-24.308 24.308-24.308Z"/>
</svg>
